!!!OTL: IN MORGENROT GEKLEIDET
!!!ARE: Europa, Mitteleuropa, Deutschland
!!!SCT: F0335
!!!YEM: Copyright 1995, estate of Helmut Schaffrath.
**kern
*ICvox
*Ivox
*M6/8
*k[]
*C:
{8E
=1
4E
8G
4G
8c
=2
4.c
4G}
{8G
=3
8.A
16G
8c
4c
8A
=4
2G
8r}
{8G
=5
4G
8B
4B
8d
=6
4.f
4d}
{8d
=7
4e
8e
8d
8e
8d
=8
2c
8r}
==
!!!AGN: Jugend - Lied, Tageszeiten, Morgen, religioes
!!!ONB: ESAC (Essen Associative Code) Database: FINK
!!!AMT: compound duple
!!!AIN: vox
!!!EED: Helmut Schaffrath
!!!EEV: 1.0
*-
